X: 777
T: The Wheels of the World.
C:McNamara.
B:O'Neill's Music of Ireland
N:O'Neill's - 777
Z:Transcribed by Stephen Foy (shf@access.digex.net)
Z:abc 1.6
Z:All ornaments (~) are turns.
M:6/8
R:Jig
K:G
G|FDD ADD|BGB cBA|Bcd ecA|ABG FED|~G3 A2 A|BGB cBA|
|Bcd ecA|AGG G2::B|def gdB|dBG c2 A|Bcd ecA|ABG FED|
|[1 def gdB|dBG c2 A|Bcd ecA|AGG G2:|[2 ~G3 A2 A|BGB cBA|\
Bcd ecA|AGG G2|]


